Numix/16/status/indicator-keyboard-Pl-1.svg

<?xml version="1.0" encoding="UTF-8" standalone="no"?>
<svg
   xmlns:dc="http://purl.org/dc/elements/1.1/"
   xmlns:cc="http://creativecommons.org/ns#"
   xmlns:rdf="http://www.w3.org/1999/02/22-rdf-syntax-ns#"
   xmlns:svg="http://www.w3.org/2000/svg"
   xmlns="http://www.w3.org/2000/svg"
   xmlns:sodipodi="http://sodipodi.sourceforge.net/DTD/sodipodi-0.dtd"
   xmlns:inkscape="http://www.inkscape.org/namespaces/inkscape"
   viewBox="0 0 16 16"
   id="svg2"
   version="1.1"
   inkscape:version="0.91 r13725"
   sodipodi:docname="indicator-keyboard-Pl-1.svg">
  <metadata
     id="metadata14">
    <rdf:RDF>
      <cc:Work
         rdf:about="">
        <dc:format>image/svg+xml</dc:format>
        <dc:type
           rdf:resource="http://purl.org/dc/dcmitype/StillImage" />
      </cc:Work>
    </rdf:RDF>
  </metadata>
  <defs
     id="defs12" />
  <sodipodi:namedview
     pagecolor="#ffffff"
     bordercolor="#666666"
     borderopacity="1"
     objecttolerance="10"
     gridtolerance="10"
     guidetolerance="10"
     inkscape:pageopacity="0"
     inkscape:pageshadow="2"
     inkscape:window-width="640"
     inkscape:window-height="480"
     id="namedview10"
     showgrid="false"
     inkscape:zoom="14.75"
     inkscape:cx="8"
     inkscape:cy="8"
     inkscape:window-x="65"
     inkscape:window-y="24"
     inkscape:window-maximized="0"
     inkscape:current-layer="svg2" />
  <path
     style="fill:#ececec;fill-opacity:1"
     d="M 1.5996094 0 C 0.71320937 2.9605947e-16 0 0.71320937 0 1.5996094 L 0 14.400391 C 2.9605947e-16 15.286791 0.71320937 16 1.5996094 16 L 14.400391 16 C 15.286791 16 16 15.286791 16 14.400391 L 16 1.5996094 C 16 0.71320937 15.286791 0 14.400391 0 L 1.5996094 0 z M 9.4238281 4.1113281 L 9.4238281 9.9628906 C 9.4238281 10.106891 9.4369375 10.2225 9.4609375 10.3125 C 9.4909375 10.3965 9.5319375 10.465531 9.5859375 10.519531 C 9.6399375 10.567531 9.7089687 10.604906 9.7929688 10.628906 C 9.8829687 10.652906 9.9874215 10.673406 10.107422 10.691406 L 10.027344 11.177734 C 9.8293434 11.171734 9.6558594 11.143703 9.5058594 11.095703 C 9.3618594 11.053703 9.2387188 10.988438 9.1367188 10.898438 C 9.0407187 10.802437 8.9661094 10.681109 8.9121094 10.537109 C 8.8641094 10.387109 8.8398437 10.202469 8.8398438 9.9804688 L 8.8398438 4.2207031 L 9.4238281 4.1113281 z M 5.1328125 4.8046875 C 6.0148125 4.8046875 6.6715156 4.9725937 7.1035156 5.3085938 C 7.5355156 5.6445937 7.7519531 6.1222344 7.7519531 6.7402344 C 7.7519531 7.0942344 7.6885 7.3964375 7.5625 7.6484375 C 7.4365 7.8944375 7.2574375 8.0959531 7.0234375 8.2519531 C 6.7894375 8.4019531 6.5002031 8.5139375 6.1582031 8.5859375 C 5.8222031 8.6519375 5.441625 8.6835937 5.015625 8.6835938 L 4.1699219 8.6835938 L 4.1699219 11.095703 L 3.5585938 11.095703 L 3.5585938 4.9765625 C 3.7745937 4.9165625 4.0264531 4.8736094 4.3144531 4.8496094 C 4.6084531 4.8196094 4.8808125 4.8046875 5.1328125 4.8046875 z M 5.1601562 5.3359375 C 4.9321563 5.3359375 4.7362187 5.3452813 4.5742188 5.3632812 C 4.4182187 5.3752812 4.2839219 5.3864375 4.1699219 5.3984375 L 4.1699219 8.1523438 L 4.9433594 8.1523438 C 5.2733594 8.1523438 5.5719375 8.1356094 5.8359375 8.0996094 C 6.1059375 8.0576094 6.3335313 7.9848125 6.5195312 7.8828125 C 6.7115312 7.7748125 6.8589375 7.6274062 6.9609375 7.4414062 C 7.0629375 7.2554062 7.1132812 7.0184688 7.1132812 6.7304688 C 7.1132812 6.4544687 7.0554063 6.226875 6.9414062 6.046875 C 6.8334063 5.866875 6.6879531 5.7250469 6.5019531 5.6230469 C 6.3219531 5.5150469 6.1148594 5.4404375 5.8808594 5.3984375 C 5.6468594 5.3564375 5.4061563 5.3359375 5.1601562 5.3359375 z M 12.173828 8.8417969 L 12.441406 8.8417969 L 12.441406 12.896484 L 12.0625 12.896484 L 12.0625 9.421875 C 12.0196 9.468675 11.962778 9.5157063 11.892578 9.5664062 C 11.826278 9.6171062 11.749862 9.66805 11.664062 9.71875 C 11.578262 9.76555 11.488131 9.812575 11.394531 9.859375 C 11.300931 9.902275 11.206881 9.9375437 11.113281 9.9648438 L 11.001953 9.671875 C 11.235953 9.5899751 11.445606 9.4880812 11.628906 9.3632812 C 11.812206 9.2345813 11.994428 9.0601969 12.173828 8.8417969 z "
     id="path4" />
</svg>

<svg xmlns="http://www.w3.org/2000/svg" viewBox="0 0 16 16">
 <path d="m 1.6 0 c -0.886 0 -1.6 0.713 -1.6 1.6 l 0 12.801 c 0 0.886 0.713 1.6 1.6 1.6 l 12.801 0 c 0.886 0 1.6 -0.713 1.6 -1.6 l 0 -12.801 c 0 -0.886 -0.713 -1.6 -1.6 -1.6 l -12.801 0 z m 7.824 4.111 l 0 5.852 c 0 0.144 0.013 0.26 0.037 0.35 c 0.03 0.084 0.071 0.153 0.125 0.207 c 0.054 0.048 0.123 0.085 0.207 0.109 c 0.09 0.024 0.194 0.044 0.314 0.063 l -0.08 0.486 c -0.198 -0.006 -0.371 -0.034 -0.521 -0.082 c -0.144 -0.042 -0.267 -0.107 -0.369 -0.197 c -0.096 -0.096 -0.171 -0.217 -0.225 -0.361 c -0.048 -0.15 -0.072 -0.335 -0.072 -0.557 l 0 -5.76 l 0.584 -0.109 z m -4.291 0.693 c 0.882 0 1.539 0.168 1.971 0.504 c 0.432 0.336 0.648 0.814 0.648 1.432 c 0 0.354 -0.063 0.656 -0.189 0.908 c -0.126 0.246 -0.305 0.448 -0.539 0.604 c -0.234 0.15 -0.523 0.262 -0.865 0.334 c -0.336 0.066 -0.717 0.098 -1.143 0.098 l -0.846 0 l 0 2.412 l -0.611 0 l 0 -6.119 c 0.216 -0.06 0.468 -0.103 0.756 -0.127 c 0.294 -0.03 0.566 -0.045 0.818 -0.045 z m 0.027 0.531 c -0.228 0 -0.424 0.009 -0.586 0.027 c -0.156 0.012 -0.29 0.023 -0.404 0.035 l 0 2.754 l 0.773 0 c 0.33 0 0.629 -0.017 0.893 -0.053 c 0.27 -0.042 0.498 -0.115 0.684 -0.217 c 0.192 -0.108 0.339 -0.255 0.441 -0.441 c 0.102 -0.186 0.152 -0.423 0.152 -0.711 c 0 -0.276 -0.058 -0.504 -0.172 -0.684 c -0.108 -0.18 -0.253 -0.322 -0.439 -0.424 c -0.18 -0.108 -0.387 -0.183 -0.621 -0.225 c -0.234 -0.042 -0.475 -0.063 -0.721 -0.063 z m 7.01 3.506 l 0.268 0 l 0 4.055 l -0.379 0 l 0 -3.475 c -0.043 0.047 -0.1 0.094 -0.17 0.145 c -0.066 0.051 -0.143 0.102 -0.229 0.152 c -0.086 0.047 -0.176 0.094 -0.27 0.141 c -0.094 0.043 -0.188 0.078 -0.281 0.105 l -0.111 -0.293 c 0.234 -0.082 0.444 -0.184 0.627 -0.309 c 0.183 -0.129 0.366 -0.303 0.545 -0.521 z" style="fill:#ececec;fill-opacity:1"/>
</svg>
